!!!COM: Anonymous
!!!OTL: Jamais ne seray amoureulx
!!!AGN: Song; Chanson; Rondeau
!!!SCT: Ano3104
!!!SCA: Ano3104
!!!SMS: Dijon Chansonnier
!!!folio: 103v-104r
!!!SMS2: Lab
!!!SMS3: Wolf
!!!voices: 3
**kern	**kern	**kern
*staff3	*staff2	*staff1
*Ivox	*Ivox	*Ivox
*I"Contra	*I"Tenor	*I"Discantus
*I'C	*I'T	*I'D
*clefGv2	*clefGv2	*clefG2
*k[]	*k[]	*k[]
*M3/1	*M3/1	*M3/1
*met(O)	*met(O)	*met(O)
=1-	=1-	=1-
1.G	2.G	0.r
.	4A	.
.	2B	.
2E	2c	.
1F	1d	.
=2	=2	=2
1E	0e	2.g
.	.	4a
2G	.	2b
2A	.	2cc
2B	1d	2.dd
2G	.	.
.	.	8ccL
.	.	8bJ
=3	=3	=3
2r	2c	2a
2G	2d	2.b
1C	1e	.
.	.	4g
.	.	2cc
2D	1d	2b
2F	.	[2a
=4	=4	=4
2E	2c	4a]
.	.	8gL
.	.	8aJ
2D	2.d	2.b
1G	.	.
.	4c	4a
.	2B	1g
1D	1A	.
.	.	2f#i
=5	=5	=5
2r	1G	1g
2.d	.	.
.	2.D	1r
4c	.	.
2B	.	.
.	4E	.
2A	2F	1r
[2B	[2G	.
=6	=6	=6
1B]	4G]	2.d
.	4F	.
.	2G	.
.	.	4e
2c	2A	2f
2d	2B	2.g
1e	2.c	.
.	.	4f
.	.	2g
.	4B	.
=7	=7	=7
2c	2A	2a
2.d	2G	2.b
.	2r	.
4c	.	4g
4B	2G	2b
4A	.	.
2G	2E	2cc
2A	2D	[2dd
=8	=8	=8
2B	2.G	4dd]
.	.	4cc
1G	.	4b
.	4A	4a
.	2B	2g
2F	2c	1.a
1D	[1d	.
=9	=9	=9
2r	2d]	2b
1.A	1e	2.cc
.	.	4b
.	2c	1a
2F	2d	.
2E	2e	2g
=10	=10	=10
1D	2f	1.a
.	1d	.
1F	.	.
.	2d	2f
1E	2e	2.g
.	2c#i	.
.	.	4a
=11	=11	=11
0DN	0dN	0fN
1r	1r	1r
=12	=12	=12
0.d	1.G	1.b-
.	1G	1b-i
.	4F	4a
.	4E	4g
=13	=13	=13
1D	1F	0.a
2.F	2.D	.
4E	4C	.
2.F	2.D	.
4G	4E	.
=14	=14	=14
1.A	2.F	2.d
.	4E	4c
.	2F	2d
2B-i	2G	2e
2A	2A	2f
2G	2B-i	2g
=15	=15	=15
2F	2A	2a
1G	1d	2.b-i
.	.	4a
2A	2c	1a
1E	1B-i	.
.	.	2g
=16	=16	=16
1F	1A	1a
2E	2r	2g
1D	2.A	2.f
.	4G	4e
2A	2F	2d
=17	=17	=17
2G	2.E	2c
1A	.	2.f
.	4D	.
.	2F	.
.	.	4e
2B-i	2G	1d
2.G	1E	.
.	.	2c#i
4F	.	.
=18	=18	=18
1A	1D	0d
2G	2r	.
2A	2D	.
2B	2.G	2r
[2G	.	2d
.	4F	.
=19	=19	=19
2G]	2E	2.g
2A	2D	.
.	.	4f
2.B	2.G	2e
.	.	2d
4A	4F	.
2B	2G	2.g
2c	2A	.
.	.	4f
=20	=20	=20
1d	2B	2g
.	2c	2a
1G	1d	2b
.	.	2cc
1r	1G	1dd
=21	=21	=21
2.E	2r	1g
.	2c	.
4F	.	.
2G	2B	2r
2F	2A	2cc
1D	2.d	2b
.	.	2a
.	4c	.
=22	=22	=22
1D	2B	2.dd
.	2A	.
.	.	4cc
2E	2G	2b
2F	2.c	2a
2G	.	2g
.	4B	.
2A	2c	[2cc
=23	=23	=23
2G	2.d	4cc]
.	.	4b
2F	.	2.a
.	4c	.
2G	2B	.
.	.	4g
2E	2G	1g
1D	1A	.
.	.	2f#i
=24	=24	=24
0.dl	0.Gl	0.gl
==	==	==
*-	*-	*-
!!!RDF**kern: l=long note in original notation
!!!RDF**kern: i=editorial accidental
!!!RDF**kern: N=signum congruentiae
!!!ENC: Chris Gage 09-14-2016
!!!END: 2018/09/27
!!!EED: Jesse Rodin
!!!EEV: 2018/11/29
!!!ONB: Translated from MusicXML and edited on 2018/11/29 by Craig Sapp
!!muse2ps: C^@{COM}\n@{SMS}, @{folio}; also @{SMS2}, @{SMS3}^v95,95,150Q16
